icons/svgs/clock-outline.svg

<svg width="24" height="24" viewBox="0 0 24 24" fill="none" xmlns="http://www.w3.org/2000/svg">
<path d="M20.125 12C20.125 9.10938 18.5625 6.45312 16.0625 4.96875C13.5234 3.52344 10.4375 3.52344 7.9375 4.96875C5.39844 6.45312 3.875 9.10938 3.875 12C3.875 14.9297 5.39844 17.5859 7.9375 19.0703C10.4375 20.5156 13.5234 20.5156 16.0625 19.0703C18.5625 17.5859 20.125 14.9297 20.125 12ZM2 12C2 8.44531 3.875 5.16406 7 3.36719C10.0859 1.57031 13.875 1.57031 17 3.36719C20.0859 5.16406 22 8.44531 22 12C22 15.5938 20.0859 18.875 17 20.6719C13.875 22.4688 10.0859 22.4688 7 20.6719C3.875 18.875 2 15.5938 2 12ZM11.0625 6.6875C11.0625 6.17969 11.4531 5.75 12 5.75C12.5078 5.75 12.9375 6.17969 12.9375 6.6875V11.5312L16.2578 13.7188C16.6875 14.0312 16.8047 14.6172 16.5312 15.0469C16.2188 15.4766 15.6328 15.5938 15.2031 15.2812L11.4531 12.7812C11.2188 12.625 11.0625 12.3125 11.0625 12V6.6875Z" fill="black"/>
</svg>

<svg xmlns="http://www.w3.org/2000/svg" width="24" height="24" fill="currentColor" class="icon-clock-outline" viewBox="0 0 24 24">
  <mask id="a" width="20" height="21" x="2" y="2" maskUnits="userSpaceOnUse" style="mask-type:alpha">
    <path d="M20.125 12c0-2.89-1.562-5.547-4.062-7.031-2.54-1.446-5.625-1.446-8.125 0C5.398 6.453 3.875 9.109 3.875 12a8.13 8.13 0 0 0 4.063 7.07c2.5 1.446 5.585 1.446 8.125 0 2.5-1.484 4.062-4.14 4.062-7.07M2 12a9.93 9.93 0 0 1 5-8.633c3.086-1.797 6.875-1.797 10 0 3.086 1.797 5 5.078 5 8.633 0 3.594-1.914 6.875-5 8.672-3.125 1.797-6.914 1.797-10 0C3.875 18.875 2 15.594 2 12m9.063-5.312c0-.508.39-.938.937-.938a.95.95 0 0 1 .938.938v4.843l3.32 2.188c.43.312.547.898.273 1.328-.312.43-.898.547-1.328.234l-3.75-2.5c-.234-.156-.39-.469-.39-.781z"/>
  </mask>
  <g mask="url(#a)">
    <path d="M0 0h24v24H0z"/>
  </g>
</svg>
